X: 37
T:Gan Ainm
M:4/4
L:1/8
R:Highland
D:Session tape - Derrygonelly, Fermanagh 1993
Z:Bernie Stocks
K:D
dAFA defd | ecAc efge |1 fafd Bded | c2A2 A2fe :|2 fafd Acec | d2dc d4 ::\
afdf a2gf | gece g2ag | fafd Bded | c2A2 A2fe |\
dAFA defd | ecAc efge | fafd Acec | d2dc d4 :|
